X: 138028
T: O'KELLY'S JIG
Q: "Irish Jig."
R: Jig.
%R: jig
B: James Kerr "Merry Melodies" v.1 p.38 s.0 #28
Z: 2016 John Chambers <jc:trillian.mit.edu>
M: 6/8
L: 1/8
K: Am
uB |\
vA2vA AGE | vA2vA AGE | vG2vG GFE | G3 E3 |\
A2A ABc | BAB G2B |  ABc dcB | c3 c2 :|
|: ud |\
ve2ve edc | e3 g3 | G2G GFE | G3 E3 |\
A2A ABc | BAB G2G | ABc dcB | c3 c2 :|

%%sep 1 1 500
%%sep 1 1 500

